www/assets/images/wpt-logo-text.svg

<svg fill="none" height="17" viewBox="0 0 113 17" width="113" xmlns="http://www.w3.org/2000/svg"><path d="m16.0513.848356-2.928 11.232044h-3.31201l-1.792-7.39204-1.85599 7.39204h-3.312l-2.8480041-11.232044h2.9279941l1.616 8.176004 2-8.176004h3.008l1.92001 8.176004 1.632-8.176004zm9.788 6.624004c0 .256-.016.523-.048.8h-6.192c.043.555.219.981.528 1.28.32.288.71.432 1.168.432.683 0 1.157-.288 1.424-.864h2.912c-.1476.58334-.4267 1.12514-.816 1.58404-.384.47-.87.837-1.456 1.104-.587.267-1.242.4-1.968.4-.874 0-1.653-.187-2.336-.56-.6768-.3675-1.2325-.9233-1.6-1.6-.384-.69304-.576-1.50404-.576-2.43204s.187-1.739.56-2.432c.3675-.67677.9232-1.23252 1.6-1.6.683-.373 1.467-.56 2.352-.56.864 0 1.632.181 2.304.544s1.195.88 1.568 1.552c.384.672.576 1.456.576 2.352zm-2.8-.72c0-.47-.16-.843-.48-1.12s-.72-.416-1.2-.416c-.459 0-.848.133-1.168.4-.31.267-.501.645-.576 1.136zm6.98-2.336c.255-.416.624-.752 1.103-1.008.48-.256 1.03-.384 1.648-.384.736 0 1.403.187 2 .56.598.373 1.067.907 1.409 1.6.352.693.528 1.499.528 2.416s-.177 1.728-.528 2.43204c-.342.693-.811 1.232-1.408 1.616-.5995.3739-1.2935.5682-2 .56-.63 0-1.18-.123-1.649-.368-.4479-.2364-.828-.5834-1.104-1.008v1.248h-2.735v-11.840044h2.736zm3.904 3.184c0-.683-.192-1.216-.576-1.6-.1767-.19179-.3923-.34377-.6323-.44584s-.499-.1519-.7597-.14616c-.544 0-1.008.197-1.392.592-.374.395-.56.933-.56 1.616s.186 1.221.56 1.616c.178.19018.3938.34108.6335.44303.2397.10194.498.15268.7585.14897.2603.00357.5185-.04724.758-.14918s.4551-.25276.633-.44282c.385-.405.577-.95.577-1.632zm12.779-3.136c0 .65-.15 1.248-.448 1.792-.299.533-.757.965-1.376 1.296-.619.33-1.387.496-2.304.496h-1.696v4.03204h-2.736v-11.232044h4.432c.896 0 1.653.155004 2.272.464004.619.31 1.083.736 1.392 1.28.31.544.464 1.168.464 1.872zm-4.336 1.408c.522 0 .912-.123 1.168-.368s.384-.592.384-1.04-.128-.795-.384-1.04-.645-.368-1.168-.368h-1.488v2.816zm5.216 1.728c0-.917.17-1.723.512-2.416.352-.693.827-1.227 1.424-1.6.5995-.37394 1.2935-.56828 2-.56.63 0 1.179.128 1.648.384.48.256.848.592 1.104 1.008v-1.264h2.736v8.92804h-2.736v-1.264c-.2794.4275-.6654.775-1.12 1.008-.47.256-1.018.384-1.648.384-.7013.0067-1.3898-.1876-1.984-.56-.597-.384-1.072-.923-1.424-1.616-.341-.70404-.512-1.51504-.512-2.43204zm6.688.016c0-.683-.192-1.221-.576-1.616-.1742-.19066-.387-.34206-.6243-.44413-.2372-.10207-.4935-.15248-.7517-.14787-.544 0-1.008.197-1.392.592-.373.384-.56.917-.56 1.6s.187 1.227.56 1.632c.178.19018.3938.34108.6335.44303.2397.10194.498.15268.7585.14897.2582.0046.5145-.04581.7517-.14788.2373-.10207.4501-.25346.6243-.44412.384-.395.576-.933.576-1.616zm8.108-4.592c.629 0 1.178.128 1.648.384.48.256.848.592 1.104 1.008v-1.264h2.736v8.91204c0 .821-.166 1.563-.496 2.224-.3208.6729-.8401 1.2313-1.488 1.6-.662.395-1.488.592-2.48.592-1.323 0-2.395-.315-3.216-.944-.822-.619-1.291-1.461-1.408-2.528h2.704c.085.341.288.608.608.8.32.203.714.304 1.184.304.565 0 1.013-.165 1.344-.496.341-.32.512-.837.512-1.552v-1.264c-.2785.4267-.6576.7783-1.104 1.024-.47.256-1.019.384-1.648.384-.7065.0082-1.4005-.1861-2-.56-.598-.384-1.072-.923-1.424-1.616-.342-.70404-.512-1.51504-.512-2.43204s.17-1.723.512-2.416c.352-.693.826-1.227 1.424-1.6.5995-.37394 1.2935-.56828 2-.56zm2.752 4.592c0-.683-.192-1.221-.576-1.616-.1743-.19061-.3871-.34197-.6243-.44404-.2373-.10207-.4935-.1525-.7517-.14796-.544 0-1.008.197-1.392.592-.374.384-.56.917-.56 1.6s.186 1.227.56 1.632c.178.19018.3938.34108.6335.44303.2397.10194.498.15268.7585.14897.544 0 1.002-.197 1.376-.592.384-.395.576-.933.576-1.616zm13.131-.144c0 .256-.016.523-.048.8h-6.192c.043.555.219.981.528 1.28.32.288.709.432 1.168.432.683 0 1.157-.288 1.424-.864h2.912c-.1473.58344-.4265 1.12534-.816 1.58404-.3929.4762-.8914.8542-1.456 1.104-.587.267-1.243.4-1.968.4-.875 0-1.653-.187-2.336-.56-.6769-.3674-1.2327-.9232-1.6-1.6-.384-.69304-.576-1.50404-.576-2.43204s.187-1.739.56-2.432c.3673-.67687.9231-1.23266 1.6-1.6.683-.373 1.467-.56 2.352-.56.864 0 1.632.181 2.304.544s1.195.88 1.568 1.552c.384.672.576 1.456.576 2.352zm-2.8-.72c0-.47-.16-.843-.48-1.12s-.72-.416-1.2-.416c-.459 0-.848.133-1.168.4-.309.267-.501.645-.576 1.136zm12.323-5.904004v2.192004h-2.976v9.04004h-2.736v-9.04004h-2.976v-2.192004zm9.789 6.624004c0 .256-.015.523-.047.8h-6.192c.042.555.218.981.528 1.28.32.288.709.432 1.168.432.682 0 1.157-.288 1.424-.864h2.912c-.1481.58313-.4272 1.12484-.816 1.58404-.384.47-.87.837-1.456 1.104-.587.267-1.243.4-1.968.4-.875 0-1.654-.187-2.336-.56-.6769-.3674-1.2327-.9232-1.6-1.6-.384-.69304-.576-1.50404-.576-2.43204s.186-1.739.56-2.432c.3673-.67687.9231-1.23266 1.6-1.6.682-.373 1.466-.56 2.352-.56.864 0 1.632.181 2.304.544s1.194.88 1.568 1.552c.384.672.575 1.456.575 2.352zm-2.799-.72c0-.47-.16-.843-.48-1.12s-.72-.416-1.2-.416c-.459 0-.848.133-1.168.4-.31.267-.502.645-.576 1.136zm7.8747 5.45604c-.779 0-1.472-.133-2.08-.4-.6077-.267-1.0877-.63-1.4397-1.088-.346-.4538-.5517-.99885-.592-1.56804h2.7037c.032.31.176.56.432.752.256.19204.571.28804.944.28804.341 0 .603-.064.784-.192.192-.13904.288-.31504.288-.52804 0-.256-.133-.443-.4-.56-.267-.128-.699-.267-1.296-.416-.542-.12083-1.077-.2758-1.6-.464-.425-.16947-.8036-.4383-1.1037-.784-.309-.363-.464-.848-.464-1.456 0-.512.139-.976.416-1.392.288-.427.704-.763 1.2477-1.008.555-.245 1.211-.368 1.968-.368 1.12 0 2 .277 2.64.832.651.555 1.024 1.29 1.12 2.208h-2.528c-.016-.14438-.061-.28401-.133-.41049-.071-.12647-.167-.2372-.283-.32551-.224-.181-.523-.272-.896-.272-.32 0-.565.064-.736.192-.082.05357-.148.1274-.193.21431-.045.08692-.066.18395-.063.28169 0 .256.133.448.4.576.277.128.704.256 1.28.384.661.17 1.2.341 1.616.512.416.16.779.427 1.088.8.32.363.485.853.496 1.472 0 .52304-.149.99204-.448 1.40804-.288.405-.709.725-1.264.96-.544.235-1.179.352-1.904.352zm10.266-2.44804v2.32004h-1.392c-.992 0-1.766-.24-2.32-.72-.555-.49-.832-1.285-.832-2.38404v-3.552h-1.088v-2.272h1.088v-2.176003h2.736v2.176003h1.792v2.272h-1.792v3.584c0 .267.064.459.192.576s.341.176.64.176z" fill="#fff"/></svg>

<svg width="113" height="17" viewBox="0 0 113 17" fill="none" xmlns="http://www.w3.org/2000/svg">
<path d="M16.0513 0.848356L13.1233 12.0804H9.81129L8.01929 4.68836L6.1633 12.0804H2.8513L0.0032959 0.848356H2.93129L4.54729 9.02436L6.54729 0.848356H9.55529L11.4753 9.02436L13.1073 0.848356H16.0513ZM25.8393 7.47236C25.8393 7.72836 25.8233 7.99536 25.7913 8.27236H19.5993C19.6423 8.82736 19.8183 9.25336 20.1273 9.55236C20.4473 9.84036 20.8373 9.98436 21.2953 9.98436C21.9783 9.98436 22.4523 9.69636 22.7193 9.12036H25.6313C25.4837 9.7037 25.2046 10.2455 24.8153 10.7044C24.4313 11.1744 23.9453 11.5414 23.3593 11.8084C22.7723 12.0754 22.1173 12.2084 21.3913 12.2084C20.5173 12.2084 19.7383 12.0214 19.0553 11.6484C18.3785 11.2809 17.8228 10.7251 17.4553 10.0484C17.0713 9.35536 16.8793 8.54436 16.8793 7.61636C16.8793 6.68836 17.0663 5.87736 17.4393 5.18436C17.8068 4.50759 18.3625 3.95184 19.0393 3.58436C19.7223 3.21136 20.5063 3.02436 21.3913 3.02436C22.2553 3.02436 23.0233 3.20536 23.6953 3.56836C24.3673 3.93136 24.8903 4.44836 25.2633 5.12036C25.6473 5.79236 25.8393 6.57636 25.8393 7.47236ZM23.0393 6.75236C23.0393 6.28236 22.8793 5.90936 22.5593 5.63236C22.2393 5.35536 21.8393 5.21636 21.3593 5.21636C20.9003 5.21636 20.5113 5.34936 20.1913 5.61636C19.8813 5.88336 19.6903 6.26136 19.6153 6.75236H23.0393ZM30.0193 4.41636C30.2743 4.00036 30.6433 3.66436 31.1223 3.40836C31.6023 3.15236 32.1523 3.02436 32.7703 3.02436C33.5063 3.02436 34.1733 3.21136 34.7703 3.58436C35.3683 3.95736 35.8373 4.49136 36.1793 5.18436C36.5313 5.87736 36.7073 6.68336 36.7073 7.60036C36.7073 8.51736 36.5303 9.32836 36.1793 10.0324C35.8373 10.7254 35.3683 11.2644 34.7713 11.6484C34.1718 12.0223 33.4778 12.2166 32.7713 12.2084C32.1413 12.2084 31.5913 12.0854 31.1223 11.8404C30.6744 11.604 30.2943 11.257 30.0183 10.8324V12.0804H27.2833V0.240356H30.0193V4.41636ZM33.9233 7.60036C33.9233 6.91736 33.7313 6.38436 33.3473 6.00036C33.1706 5.80857 32.955 5.65659 32.715 5.55452C32.475 5.45245 32.216 5.40262 31.9553 5.40836C31.4113 5.40836 30.9473 5.60536 30.5633 6.00036C30.1893 6.39536 30.0033 6.93336 30.0033 7.61636C30.0033 8.29936 30.1893 8.83736 30.5633 9.23236C30.7413 9.42254 30.9571 9.57344 31.1968 9.67539C31.4365 9.77733 31.6948 9.82807 31.9553 9.82436C32.2156 9.82793 32.4738 9.77712 32.7133 9.67518C32.9528 9.57324 33.1684 9.42242 33.3463 9.23236C33.7313 8.82736 33.9233 8.28236 33.9233 7.60036ZM46.7023 4.46436C46.7023 5.11436 46.5523 5.71236 46.2543 6.25636C45.9553 6.78936 45.4973 7.22136 44.8783 7.55236C44.2593 7.88236 43.4913 8.04836 42.5743 8.04836H40.8783V12.0804H38.1423V0.848356H42.5743C43.4703 0.848356 44.2273 1.00336 44.8463 1.31236C45.4653 1.62236 45.9293 2.04836 46.2383 2.59236C46.5483 3.13636 46.7023 3.76036 46.7023 4.46436ZM42.3663 5.87236C42.8883 5.87236 43.2783 5.74936 43.5343 5.50436C43.7903 5.25936 43.9183 4.91236 43.9183 4.46436C43.9183 4.01636 43.7903 3.66936 43.5343 3.42436C43.2783 3.17936 42.8893 3.05636 42.3663 3.05636H40.8783V5.87236H42.3663ZM47.5823 7.60036C47.5823 6.68336 47.7523 5.87736 48.0943 5.18436C48.4463 4.49136 48.9213 3.95736 49.5183 3.58436C50.1178 3.21042 50.8118 3.01608 51.5183 3.02436C52.1483 3.02436 52.6973 3.15236 53.1663 3.40836C53.6463 3.66436 54.0143 4.00036 54.2703 4.41636V3.15236H57.0063V12.0804H54.2703V10.8164C53.9909 11.2439 53.6049 11.5914 53.1503 11.8244C52.6803 12.0804 52.1323 12.2084 51.5023 12.2084C50.801 12.2151 50.1125 12.0208 49.5183 11.6484C48.9213 11.2644 48.4463 10.7254 48.0943 10.0324C47.7533 9.32836 47.5823 8.51736 47.5823 7.60036ZM54.2703 7.61636C54.2703 6.93336 54.0783 6.39536 53.6943 6.00036C53.5201 5.8097 53.3073 5.6583 53.07 5.55623C52.8328 5.45416 52.5765 5.40375 52.3183 5.40836C51.7743 5.40836 51.3103 5.60536 50.9263 6.00036C50.5533 6.38436 50.3663 6.91736 50.3663 7.60036C50.3663 8.28336 50.5533 8.82736 50.9263 9.23236C51.1043 9.42254 51.3201 9.57344 51.5598 9.67539C51.7995 9.77733 52.0578 9.82807 52.3183 9.82436C52.5765 9.82896 52.8328 9.77855 53.07 9.67648C53.3073 9.57441 53.5201 9.42302 53.6943 9.23236C54.0783 8.83736 54.2703 8.29936 54.2703 7.61636ZM62.3783 3.02436C63.0073 3.02436 63.5563 3.15236 64.0263 3.40836C64.5063 3.66436 64.8743 4.00036 65.1303 4.41636V3.15236H67.8663V12.0644C67.8663 12.8854 67.7003 13.6274 67.3703 14.2884C67.0495 14.9613 66.5302 15.5197 65.8823 15.8884C65.2203 16.2834 64.3943 16.4804 63.4023 16.4804C62.0793 16.4804 61.0073 16.1654 60.1863 15.5364C59.3643 14.9174 58.8953 14.0754 58.7783 13.0084H61.4823C61.5673 13.3494 61.7703 13.6164 62.0903 13.8084C62.4103 14.0114 62.8043 14.1124 63.2743 14.1124C63.8393 14.1124 64.2873 13.9474 64.6183 13.6164C64.9593 13.2964 65.1303 12.7794 65.1303 12.0644V10.8004C64.8518 11.2271 64.4727 11.5787 64.0263 11.8244C63.5563 12.0804 63.0073 12.2084 62.3783 12.2084C61.6718 12.2166 60.9778 12.0223 60.3783 11.6484C59.7803 11.2644 59.3063 10.7254 58.9543 10.0324C58.6123 9.32836 58.4423 8.51736 58.4423 7.60036C58.4423 6.68336 58.6123 5.87736 58.9543 5.18436C59.3063 4.49136 59.7803 3.95736 60.3783 3.58436C60.9778 3.21042 61.6718 3.01608 62.3783 3.02436ZM65.1303 7.61636C65.1303 6.93336 64.9383 6.39536 64.5543 6.00036C64.38 5.80975 64.1672 5.65839 63.93 5.55632C63.6927 5.45425 63.4365 5.40382 63.1783 5.40836C62.6343 5.40836 62.1703 5.60536 61.7863 6.00036C61.4123 6.38436 61.2263 6.91736 61.2263 7.60036C61.2263 8.28336 61.4123 8.82736 61.7863 9.23236C61.9643 9.42254 62.1801 9.57344 62.4198 9.67539C62.6595 9.77733 62.9178 9.82807 63.1783 9.82436C63.7223 9.82436 64.1803 9.62736 64.5543 9.23236C64.9383 8.83736 65.1303 8.29936 65.1303 7.61636ZM78.2613 7.47236C78.2613 7.72836 78.2453 7.99536 78.2133 8.27236H72.0213C72.0643 8.82736 72.2403 9.25336 72.5493 9.55236C72.8693 9.84036 73.2583 9.98436 73.7173 9.98436C74.4003 9.98436 74.8743 9.69636 75.1413 9.12036H78.0533C77.906 9.7038 77.6268 10.2457 77.2373 10.7044C76.8444 11.1806 76.3459 11.5586 75.7813 11.8084C75.1943 12.0754 74.5383 12.2084 73.8133 12.2084C72.9383 12.2084 72.1603 12.0214 71.4773 11.6484C70.8004 11.281 70.2446 10.7252 69.8773 10.0484C69.4933 9.35536 69.3013 8.54436 69.3013 7.61636C69.3013 6.68836 69.4883 5.87736 69.8613 5.18436C70.2286 4.50749 70.7844 3.9517 71.4613 3.58436C72.1443 3.21136 72.9283 3.02436 73.8133 3.02436C74.6773 3.02436 75.4453 3.20536 76.1173 3.56836C76.7893 3.93136 77.3123 4.44836 77.6853 5.12036C78.0693 5.79236 78.2613 6.57636 78.2613 7.47236ZM75.4613 6.75236C75.4613 6.28236 75.3013 5.90936 74.9813 5.63236C74.6613 5.35536 74.2613 5.21636 73.7813 5.21636C73.3223 5.21636 72.9333 5.34936 72.6133 5.61636C72.3043 5.88336 72.1123 6.26136 72.0373 6.75236H75.4613ZM87.7843 0.848356V3.04036H84.8083V12.0804H82.0723V3.04036H79.0963V0.848356H87.7843ZM97.5733 7.47236C97.5733 7.72836 97.5583 7.99536 97.5263 8.27236H91.3343C91.3763 8.82736 91.5523 9.25336 91.8623 9.55236C92.1823 9.84036 92.5713 9.98436 93.0303 9.98436C93.7123 9.98436 94.1873 9.69636 94.4543 9.12036H97.3663C97.2182 9.70349 96.9391 10.2452 96.5503 10.7044C96.1663 11.1744 95.6803 11.5414 95.0943 11.8084C94.5073 12.0754 93.8513 12.2084 93.1263 12.2084C92.2513 12.2084 91.4723 12.0214 90.7903 11.6484C90.1134 11.281 89.5576 10.7252 89.1903 10.0484C88.8063 9.35536 88.6143 8.54436 88.6143 7.61636C88.6143 6.68836 88.8003 5.87736 89.1743 5.18436C89.5416 4.50749 90.0974 3.9517 90.7743 3.58436C91.4563 3.21136 92.2403 3.02436 93.1263 3.02436C93.9903 3.02436 94.7583 3.20536 95.4303 3.56836C96.1023 3.93136 96.6243 4.44836 96.9983 5.12036C97.3823 5.79236 97.5733 6.57636 97.5733 7.47236ZM94.7743 6.75236C94.7743 6.28236 94.6143 5.90936 94.2943 5.63236C93.9743 5.35536 93.5743 5.21636 93.0943 5.21636C92.6353 5.21636 92.2463 5.34936 91.9263 5.61636C91.6163 5.88336 91.4243 6.26136 91.3503 6.75236H94.7743ZM102.649 12.2084C101.87 12.2084 101.177 12.0754 100.569 11.8084C99.9613 11.5414 99.4813 11.1784 99.1293 10.7204C98.7833 10.2666 98.5776 9.72155 98.5373 9.15236H101.241C101.273 9.46236 101.417 9.71236 101.673 9.90436C101.929 10.0964 102.244 10.1924 102.617 10.1924C102.958 10.1924 103.22 10.1284 103.401 10.0004C103.593 9.86136 103.689 9.68536 103.689 9.47236C103.689 9.21636 103.556 9.02936 103.289 8.91236C103.022 8.78436 102.59 8.64536 101.993 8.49636C101.451 8.37553 100.916 8.22056 100.393 8.03236C99.968 7.86289 99.5894 7.59406 99.2893 7.24836C98.9803 6.88536 98.8253 6.40036 98.8253 5.79236C98.8253 5.28036 98.9643 4.81636 99.2413 4.40036C99.5293 3.97336 99.9453 3.63736 100.489 3.39236C101.044 3.14736 101.7 3.02436 102.457 3.02436C103.577 3.02436 104.457 3.30136 105.097 3.85636C105.748 4.41136 106.121 5.14636 106.217 6.06436H103.689C103.673 5.91998 103.628 5.78035 103.556 5.65387C103.485 5.5274 103.389 5.41667 103.273 5.32836C103.049 5.14736 102.75 5.05636 102.377 5.05636C102.057 5.05636 101.812 5.12036 101.641 5.24836C101.559 5.30193 101.493 5.37576 101.448 5.46267C101.403 5.54959 101.382 5.64662 101.385 5.74436C101.385 6.00036 101.518 6.19236 101.785 6.32036C102.062 6.44836 102.489 6.57636 103.065 6.70436C103.726 6.87436 104.265 7.04536 104.681 7.21636C105.097 7.37636 105.46 7.64336 105.769 8.01636C106.089 8.37936 106.254 8.86936 106.265 9.48836C106.265 10.0114 106.116 10.4804 105.817 10.8964C105.529 11.3014 105.108 11.6214 104.553 11.8564C104.009 12.0914 103.374 12.2084 102.649 12.2084ZM112.915 9.76036V12.0804H111.523C110.531 12.0804 109.757 11.8404 109.203 11.3604C108.648 10.8704 108.371 10.0754 108.371 8.97636V5.42436H107.283V3.15236H108.371V0.976357H111.107V3.15236H112.899V5.42436H111.107V9.00836C111.107 9.27536 111.171 9.46736 111.299 9.58436C111.427 9.70136 111.64 9.76036 111.939 9.76036H112.915Z" fill="white"/>
</svg>
